X: 1
T:Mazurka d'Auvergne
C:Repertori 51
M:3/4
L:1/8
K:C
G ce|:g2 a2 gf|e2 g2 fe|d2 df ed|e2 cG ce|\
g2 a2 gf|e2 g2 fe|dc df ed|1 g3G ce:|2 c4 cB||
A2 Ac BA|G2 Gc Bc|dc df ed|1 e2 c2 cB:|2 c3||
